X:5739
T:Gan Ainm
R:Jig
S:
H:
N:
D:concertina recital Milltown 1992
Z:Adrian Scahill
M:6/8
L:1/8
K:G
BGG AGG|BGG AGG|DGG GAG|DGG G2A|\
BGG AGG|BGG AGG|D2E F2G|ADE FGA:||\
dcB cBA|dcB cBA|DGG GAG|DGG G2B|\
dcB cBA|dcB cBA|D2E F2G|ADE FGA:||\
BAB c3|ded def|gfg ged|gag gf/2e/2d|\
BAB c3|dfe d2e|=f3 fed|fag fdc:||
